public/avatar/shoe/163.svg

<svg xmlns:xlink="http://www.w3.org/1999/xlink" height="38.3" width="36.05" xmlns="http://www.w3.org/2000/svg"><use height="19.7" transform="translate(11.4 8.65)" width="20.5" xlink:href="#a"/><defs><g id="a"><path d="M-7.25-1.25q1-4.95 7.2-4.95 5.95 0 6.65 3.7L8.1 8.9l-.25 1.45q-1.15.9-2.7.7-.55-.15-.55-.55l-.1-.65-.6 1.45q-1.45 1.6-7.55 2.1-6.2.5-8-1.1l-.15-.2q-.6-.95-.6-2.45 0-.9.55-1.5l3.55-3.8q1.05-3.2 1.05-5.6" fill="#752020" fill-rule="evenodd" transform="translate(12.4 6.2)"/><path d="M-.65-5Q4-5.45 5.2-2.6 5.85-1.2 6.5 4q.7 5.1.4 5.35-.95.7-1.15.45l-1.1-6-.4 2.7Q3.7 9.35 2.9 10.55q-1.2 1.35-6.65 1.7-5.4.3-7-.85-.65-1.4-.35-2.25L-7.15 5Q-6 1.8-6-1.15-5.35-4.6-.65-5" fill="#fff" fill-rule="evenodd" transform="translate(12.4 6.2)"/><path d="M-.05-5q4.2-.15 5.25 2.4.65 1.4 1.3 6.6.7 5.1.4 5.35-.95.7-1.15.45l-1.1-6-.4 2.7Q3.7 9.35 2.9 10.55q-1.2 1.35-6.65 1.7-5.4.3-7-.85-.55-1.15-.4-2.05 1.75 1.2 6.3.95 4.35-.25 5.3-1.2 1.9-2.8 2.05-7.25Q2.65-3.1-.05-5" fill="#fcf" fill-rule="evenodd" transform="translate(12.4 6.2)"/><path d="m-4.9-1.25 2.35.05q1.5.6.65 3.5l-.85 3q-.25 1.25-.9 1.95-.7.65-1.9.65H-8q-1.55-.5-1.05-1l.9-.85q2.6.7 3.15-.3l-1-.65h.65l1 .15q.35-.1.55-1.6.3-1.85.15-3.55-.15-1.35-1.25-1.35" fill="#fcf" fill-rule="evenodd" transform="translate(12.4 6.2)"/><path d="M-9.8 7.1q3.45 2.05 6.25.5l2.2-8Q-1.8-1.5-3.8-1.65l-2.55.4" fill="none" stroke="#752020" stroke-linecap="round" stroke-linejoin="round" transform="translate(12.4 6.2)"/></g></defs></svg>

<?xml version="1.0" encoding="UTF-8" standalone="no"?>
<svg xmlns:xlink="http://www.w3.org/1999/xlink" height="38.3px" width="36.05px" xmlns="http://www.w3.org/2000/svg">
  <g transform="matrix(1.0, 0.0, 0.0, 1.0, 23.8, 14.85)">
    <use height="19.7" transform="matrix(1.0, 0.0, 0.0, 1.0, -12.4, -6.2)" width="20.5" xlink:href="#shape0"/>
  </g>
  <defs>
    <g id="shape0" transform="matrix(1.0, 0.0, 0.0, 1.0, 12.4, 6.2)">
      <path d="M-7.25 -1.25 Q-6.25 -6.2 -0.05 -6.2 5.9 -6.2 6.6 -2.5 L8.1 8.9 7.85 10.35 Q6.7 11.25 5.15 11.05 4.6 10.9 4.6 10.5 L4.5 9.85 3.9 11.3 Q2.45 12.9 -3.65 13.4 -9.85 13.9 -11.65 12.3 L-11.8 12.1 Q-12.4 11.15 -12.4 9.65 -12.4 8.75 -11.85 8.15 L-8.3 4.35 Q-7.25 1.15 -7.25 -1.25" fill="#752020" fill-rule="evenodd" stroke="none"/>
      <path d="M-0.65 -5.0 Q4.0 -5.45 5.2 -2.6 5.85 -1.2 6.5 4.0 7.2 9.1 6.9 9.35 5.95 10.05 5.75 9.8 L4.65 3.8 4.25 6.5 Q3.7 9.35 2.9 10.55 1.7 11.9 -3.75 12.25 -9.15 12.55 -10.75 11.4 -11.4 10.0 -11.1 9.15 L-7.15 5.0 Q-6.0 1.8 -6.0 -1.15 -5.35 -4.6 -0.65 -5.0" fill="#ffffff" fill-rule="evenodd" stroke="none"/>
      <path d="M-0.05 -5.0 Q4.15 -5.15 5.2 -2.6 5.85 -1.2 6.5 4.0 7.2 9.1 6.9 9.35 5.95 10.05 5.75 9.8 L4.65 3.8 4.25 6.5 Q3.7 9.35 2.9 10.55 1.7 11.9 -3.75 12.25 -9.15 12.55 -10.75 11.4 -11.3 10.25 -11.15 9.35 -9.4 10.55 -4.85 10.3 -0.5 10.05 0.45 9.1 2.35 6.3 2.5 1.85 2.65 -3.1 -0.05 -5.0" fill="#ffccff" fill-rule="evenodd" stroke="none"/>
      <path d="M-4.9 -1.25 L-2.55 -1.2 Q-1.05 -0.6 -1.9 2.3 L-2.75 5.3 Q-3.0 6.55 -3.65 7.25 -4.35 7.9 -5.55 7.9 L-8.0 7.9 Q-9.55 7.4 -9.05 6.9 L-8.15 6.05 Q-5.55 6.75 -5.0 5.75 L-6.0 5.1 -5.35 5.1 -4.35 5.25 Q-4.0 5.15 -3.8 3.65 -3.5 1.8 -3.65 0.1 -3.8 -1.25 -4.9 -1.25" fill="#ffccff" fill-rule="evenodd" stroke="none"/>
      <path d="M-9.8 7.1 Q-6.35 9.15 -3.55 7.6 L-1.35 -0.4 Q-1.8 -1.5 -3.8 -1.65 L-6.35 -1.25" fill="none" stroke="#752020" stroke-linecap="round" stroke-linejoin="round" stroke-width="1.0"/>
    </g>
  </defs>
</svg>
